X:1
T:En attendant  (cercle ou mixer)
C:Gilles Pquignot du groupe "Au gr des vents".  Fichier ABC par Bernard Loffet
L:1/8
Q:368
M:6/8
K:C
|: [^cA,]c[cA,] [=c2A,2][BA,] | [BE,]B[BC] [cA,]B[AA,] | [^cA,]c[cA,] [B2G,2][cC] | \
 [^c2D,2][cC] [c2A,2]A, | [^cA,]c[cA,] [=c2A,2][BA,] | [BE,]B[BC] [cA,]B[AA,] | [AA,]B[cA,] [B2D,2][BC] | \
 [B2D,2][AC] [A2A,2]A, :|: [^cA,]c[cA,] [cD,]c[cC] | [cA,]^c[=cA,] [B2E,2][BC] | [BE,]B[BC] [B2E,2][BC] | \
 [BE,]B[BC] [^c2A,2]A, | [^cA,]c[cA,] [cD,]c[cC] | [cA,]^c[=cA,] [B2E,2][BC] | [BE,]B[BC] [B2E,2][BC] | \
 [B2E,2][AA,] [A2A,2]A, :| \
Z:Created with TablEdit http://www.tabledit.com/ by Bernard Loffet
